assets/Man bowing/Medium/Flat/man_bowing_flat_medium.svg

<svg width="32" height="32" viewBox="0 0 32 32" fill="none" xmlns="http://www.w3.org/2000/svg">
<path d="M26.9159 19.1883C26.3551 17.8593 25.0532 17 23.6111 17H8.30881C6.86672 17 5.56482 17.8593 5.00401 19.1883L2.25 25.83H7L14.5 30H17.5L25 25.85L29.75 25.8332L26.9159 19.1883Z" fill="#00A6ED"/>
<path d="M11.3069 25.6878C11.203 25.6488 11.0888 25.6195 10.9745 25.5902L6.31067 24.1951C6.20681 24.1561 6.09257 24.1268 5.97833 24.0976C5.72903 24.039 5.45892 24 5.18886 24C3.42304 24 2 25.3463 2 26.9951C2 28.6439 3.42304 30 5.17847 30H9C9.63362 29.5415 13 28.8293 13 28.0195C13 26.9561 12.2937 26.0488 11.3069 25.6878Z" fill="#3BC6F6"/>
<path d="M20.6931 25.6878C20.797 25.6488 20.9112 25.6195 21.0255 25.5902L25.6893 24.1951C25.7932 24.1561 25.9074 24.1268 26.0217 24.0976C26.271 24.039 26.5411 24 26.8111 24C28.577 24 30 25.3463 30 26.9951C30 28.6439 28.577 30 26.8215 30H23C22.3664 29.5415 19 28.8293 19 28.0195C19 26.9561 19.7063 26.0488 20.6931 25.6878Z" fill="#3BC6F6"/>
<path d="M15.6595 4.7893L14.5378 2.54181C14.4177 2.29097 14.5979 2 14.8783 2H17.1217C17.4021 2 17.5823 2.29097 17.4622 2.54181L16.3405 4.7893C16.1903 5.07023 15.7997 5.07023 15.6595 4.7893Z" fill="#46A4FB"/>
<path d="M10.5122 5.98165L8.1322 5.19165C7.8722 5.10165 7.7922 4.77165 7.9922 4.57165L9.5722 2.99165C9.7722 2.79165 10.1022 2.87165 10.1922 3.14165L10.9822 5.52165C11.0822 5.80165 10.8022 6.08165 10.5122 5.98165Z" fill="#46A4FB"/>
<path d="M23.8607 5.19006L21.4907 5.98006C21.2007 6.08006 20.9207 5.80006 21.0207 5.52006L21.8107 3.14006C21.9007 2.87006 22.2307 2.79006 22.4307 2.99006L24.0107 4.57006C24.2007 4.77006 24.1207 5.10006 23.8607 5.19006Z" fill="#46A4FB"/>
<path d="M11.75 17.75C11.75 18.8546 10.8546 19.75 9.75 19.75C8.64543 19.75 7.75 18.8546 7.75 17.75C7.75 16.6454 8.64543 15.75 9.75 15.75C10.8546 15.75 11.75 16.6454 11.75 17.75Z" fill="#BB806E"/>
<path d="M24.25 17.75C24.25 18.8546 23.3546 19.75 22.25 19.75C21.1454 19.75 20.25 18.8546 20.25 17.75C20.25 16.6454 21.1454 15.75 22.25 15.75C23.3546 15.75 24.25 16.6454 24.25 17.75Z" fill="#BB806E"/>
<path d="M14.6 8.52002H17.42C20.58 8.52002 23.01 11.31 22.6 14.43L21.9999 21.7C21.9999 21.7 21.56 26 16.03 26C10.4999 26 9.99994 21.7 9.99994 21.7L9.42998 14.43C9.06998 11.16 11.44 8.52002 14.6 8.52002Z" fill="#C68D7B"/>
<path d="M11.2 20.88C11.4 20.11 12.1 19.53 12.94 19.53C13.81 19.53 14.53 20.15 14.68 20.97C14.72 21.15 14.57 21.32 14.39 21.32H11.54C11.32 21.32 11.14 21.1 11.2 20.88Z" fill="white"/>
<path d="M20.8 20.88C20.6 20.11 19.9 19.53 19.06 19.53C18.19 19.53 17.47 20.15 17.32 20.97C17.28 21.15 17.43 21.32 17.61 21.32H20.46C20.68 21.32 20.86 21.1 20.8 20.88Z" fill="white"/>
<path d="M12.0601 21.02C12.0601 20.39 12.5701 19.88 13.2001 19.88C13.8301 19.88 14.3401 20.4 14.3401 21.02C14.3401 21.12 14.3301 21.22 14.3001 21.32H12.1001C12.0801 21.23 12.0601 21.13 12.0601 21.02Z" fill="#7D4533"/>
<path d="M19.9401 21.02C19.9401 20.39 19.4301 19.88 18.8001 19.88C18.1701 19.88 17.6501 20.4 17.6601 21.02C17.6601 21.12 17.6701 21.22 17.7001 21.32H19.9001C19.9201 21.23 19.9401 21.13 19.9401 21.02Z" fill="#7D4533"/>
<path d="M13.2 20.37C13.56 20.37 13.85 20.66 13.85 21.02C13.85 21.13 13.83 21.23 13.78 21.32H12.62C12.58 21.23 12.55 21.13 12.55 21.02C12.55 20.66 12.84 20.37 13.2 20.37Z" fill="black"/>
<path d="M18.79 20.37C18.43 20.37 18.14 20.66 18.14 21.02C18.14 21.13 18.17 21.23 18.21 21.32H19.37C19.41 21.23 19.44 21.13 19.44 21.02C19.44 20.66 19.15 20.37 18.79 20.37Z" fill="black"/>
<path d="M15.52 20.92L14.86 23.06C14.72 23.5 15.05 23.94 15.51 23.94H16.49C16.95 23.94 17.28 23.49 17.14 23.06L16.48 20.92C16.33 20.45 15.66 20.45 15.52 20.92Z" fill="#AB6A55"/>
<path d="M11.3354 26.6531C11.1213 26.551 10.8878 26.5 10.6445 26.5C9.72987 26.5102 8.99036 27.2857 9.00009 28.2347L9.00983 30H14.7313C15.1595 30 15.5 29.602 15.5 29.1531C15.5 28.8367 15.3151 28.551 15.0427 28.4184L11.3354 26.6531Z" fill="#C68D7B"/>
<path d="M20.6646 26.6531C20.8787 26.551 21.1122 26.5 21.3555 26.5C22.2701 26.5102 23.0096 27.2857 22.9999 28.2347L22.9902 30H17.2687C16.8405 30 16.5 29.602 16.5 29.1531C16.5 28.8367 16.6849 28.551 16.9573 28.4184L20.6646 26.6531Z" fill="#C68D7B"/>
<path d="M13.0101 20.57C13.0101 20.6805 12.9206 20.77 12.8101 20.77C12.6996 20.77 12.6101 20.6805 12.6101 20.57C12.6101 20.4595 12.6996 20.37 12.8101 20.37C12.9206 20.37 13.0101 20.4595 13.0101 20.57Z" fill="white"/>
<path d="M18.64 20.57C18.64 20.6805 18.5504 20.77 18.44 20.77C18.3295 20.77 18.24 20.6805 18.24 20.57C18.24 20.4595 18.3295 20.37 18.44 20.37C18.5504 20.37 18.64 20.4595 18.64 20.57Z" fill="white"/>
<path d="M22.22 9.79C22.9 10.02 23.51 10.51 23.88 11.21C24.19 11.81 24.29 12.47 24.16 13.08C24.155 13.11 24.15 13.1375 24.145 13.165C24.14 13.1925 24.135 13.22 24.13 13.25L23.36 17.4C23.3309 17.5551 23.3018 17.635 23.2636 17.74L23.26 17.75C23.11 18.13 22.69 18.4 22.27 18.41L22.39 17.2264L22.15 16.97C21.83 16.66 21.66 16.23 21.68 15.79L21.7 15.25C21.71 15.05 21.51 14.89 21.31 14.95C20.1 15.3 18.16 15.75 16.01 15.75C13.88 15.75 11.92 15.3 10.7 14.94C10.5 14.88 10.3 15.03 10.31 15.24L10.33 15.79C10.35 16.23 10.18 16.66 9.85999 16.97L9.65 17.223L9.75 18.41C9.24 18.41 8.71999 18.05 8.63999 17.56L7.83999 13.32C7.83439 13.292 7.828 13.2632 7.82149 13.2338C7.80475 13.1584 7.78719 13.0792 7.77999 13C7.69999 12.4 7.79999 11.78 8.09999 11.21C8.46999 10.52 9.07999 10.03 9.76999 9.79C10.5 9.54 11.13 9.05 11.54 8.39C12.06 7.56 13 7 14.06 7C14.47 7 14.87 7.08 15.23 7.24C15.47 7.35 15.73 7.4 15.99 7.4C16.25 7.4 16.51 7.34 16.75 7.24C17.11 7.08 17.51 7 17.92 7C18.99 7 19.92 7.56 20.45 8.39C20.87 9.04 21.49 9.54 22.22 9.79Z" fill="#593B39"/>
<path d="M11.33 18.8188C11.4 18.9353 11.5 19 11.61 19C11.68 19 11.76 18.9741 11.82 18.9094C11.83 18.8965 12.59 18.1715 13.7 18.3398C13.9 18.3657 14.07 18.1845 14.09 17.9385C14.11 17.6925 13.97 17.4595 13.78 17.4336C12.3876 17.2147 11.4403 18.1356 11.3908 18.1837L11.39 18.1845C11.24 18.3398 11.21 18.6246 11.33 18.8188Z" fill="#593B39"/>
<path d="M20.18 18.9094C20.24 18.9741 20.32 19 20.39 19C20.49 19 20.6 18.9482 20.67 18.8188C20.79 18.6246 20.76 18.3398 20.61 18.1845L20.6093 18.1837C20.5597 18.1356 19.6124 17.2147 18.22 17.4336C18.02 17.4595 17.89 17.6925 17.91 17.9385C17.93 18.1845 18.1 18.3527 18.3 18.3398C19.41 18.1715 20.17 18.8965 20.18 18.9094Z" fill="#593B39"/>
</svg>

<svg xmlns="http://www.w3.org/2000/svg" width="32" height="32" fill="none"><path fill="#00A6ED" d="M26.916 19.188A3.583 3.583 0 0 0 23.61 17H8.31c-1.442 0-2.744.86-3.305 2.188L2.25 25.83H7L14.5 30h3l7.5-4.15 4.75-.017-2.834-6.645Z"/><path fill="#3BC6F6" d="M11.307 25.688a3.27 3.27 0 0 0-.332-.098L6.31 24.195A3.486 3.486 0 0 0 5.189 24C3.423 24 2 25.346 2 26.995S3.423 30 5.178 30H9c.634-.459 4-1.17 4-1.98 0-1.064-.706-1.971-1.693-2.332ZM20.693 25.688a3.27 3.27 0 0 1 .332-.098l4.664-1.395A3.485 3.485 0 0 1 26.811 24C28.577 24 30 25.346 30 26.995S28.577 30 26.822 30H23c-.634-.459-4-1.17-4-1.98 0-1.064.706-1.971 1.693-2.332Z"/><path fill="#46A4FB" d="m15.66 4.79-1.122-2.248a.377.377 0 0 1 .34-.542h2.244c.28 0 .46.291.34.542L16.34 4.789a.38.38 0 0 1-.68 0ZM10.512 5.982l-2.38-.79a.373.373 0 0 1-.14-.62l1.58-1.58c.2-.2.53-.12.62.15l.79 2.38c.1.28-.18.56-.47.46ZM23.86 5.19l-2.37.79c-.29.1-.57-.18-.47-.46l.79-2.38c.09-.27.42-.35.62-.15l1.58 1.58c.19.2.11.53-.15.62Z"/><path fill="#BB806E" d="M11.75 17.75a2 2 0 1 1-4 0 2 2 0 0 1 4 0ZM24.25 17.75a2 2 0 1 1-4 0 2 2 0 0 1 4 0Z"/><path fill="#C68D7B" d="M14.6 8.52h2.82c3.16 0 5.59 2.79 5.18 5.91L22 21.7s-.44 4.3-5.97 4.3C10.5 26 10 21.7 10 21.7l-.57-7.27c-.36-3.27 2.01-5.91 5.17-5.91Z"/><path fill="#fff" d="M11.2 20.88c.2-.77.9-1.35 1.74-1.35.87 0 1.59.62 1.74 1.44.04.18-.11.35-.29.35h-2.85c-.22 0-.4-.22-.34-.44ZM20.8 20.88c-.2-.77-.9-1.35-1.74-1.35-.87 0-1.59.62-1.74 1.44-.04.18.11.35.29.35h2.85c.22 0 .4-.22.34-.44Z"/><path fill="#7D4533" d="M12.06 21.02a1.14 1.14 0 1 1 2.24.3h-2.2a1.36 1.36 0 0 1-.04-.3ZM19.94 21.02c0-.63-.51-1.14-1.14-1.14-.63 0-1.15.52-1.14 1.14 0 .1.01.2.04.3h2.2c.02-.09.04-.19.04-.3Z"/><path fill="#000" d="M13.2 20.37c.36 0 .65.29.65.65 0 .11-.02.21-.07.3h-1.16a.735.735 0 0 1-.07-.3c0-.36.29-.65.65-.65ZM18.79 20.37c-.36 0-.65.29-.65.65 0 .11.03.21.07.3h1.16c.04-.09.07-.19.07-.3 0-.36-.29-.65-.65-.65Z"/><path fill="#AB6A55" d="m15.52 20.92-.66 2.14c-.14.44.19.88.65.88h.98c.46 0 .79-.45.65-.88l-.66-2.14c-.15-.47-.82-.47-.96 0Z"/><path fill="#C68D7B" d="M11.335 26.653a1.595 1.595 0 0 0-.69-.153c-.915.01-1.655.786-1.645 1.735L9.01 30h5.721c.428 0 .769-.398.769-.847a.822.822 0 0 0-.457-.735l-3.708-1.765ZM20.665 26.653c.214-.102.447-.153.69-.153.915.01 1.655.786 1.645 1.735L22.99 30H17.27c-.428 0-.769-.398-.769-.847 0-.316.185-.602.457-.735l3.708-1.765Z"/><path fill="#fff" d="M13.01 20.57a.2.2 0 1 1-.4 0 .2.2 0 0 1 .4 0ZM18.64 20.57a.2.2 0 1 1-.4 0 .2.2 0 0 1 .4 0Z"/><path fill="#593B39" d="M22.22 9.79c.68.23 1.29.72 1.66 1.42.31.6.41 1.26.28 1.87l-.015.085-.015.085-.77 4.15c-.03.155-.058.235-.096.34l-.004.01c-.15.38-.57.65-.99.66l.12-1.184-.24-.256c-.32-.31-.49-.74-.47-1.18l.02-.54c.01-.2-.19-.36-.39-.3-1.21.35-3.15.8-5.3.8-2.13 0-4.09-.45-5.31-.81a.3.3 0 0 0-.39.3l.02.55c.02.44-.15.87-.47 1.18l-.21.253.1 1.187c-.51 0-1.03-.36-1.11-.85l-.8-4.24-.019-.086A2.976 2.976 0 0 1 8.1 11.21c.37-.69.98-1.18 1.67-1.42.73-.25 1.36-.74 1.77-1.4a2.98 2.98 0 0 1 3.69-1.15c.24.11.5.16.76.16s.52-.06.76-.16a2.997 2.997 0 0 1 3.7 1.15 3.45 3.45 0 0 0 1.77 1.4Z"/><path fill="#593B39" d="M11.33 18.819c.07.116.17.181.28.181.07 0 .15-.026.21-.09.01-.014.77-.738 1.88-.57.2.026.37-.155.39-.401.02-.247-.12-.48-.31-.505-1.392-.22-2.34.702-2.39.75a.548.548 0 0 0-.06.635ZM20.18 18.91c.06.064.14.09.21.09.1 0 .21-.052.28-.181a.548.548 0 0 0-.06-.634v-.001c-.05-.048-.998-.97-2.39-.75-.2.025-.33.258-.31.505.02.245.19.414.39.4 1.11-.167 1.87.558 1.88.57Z"/></svg>
